library/css/icons/svgs/fi-map.svg

<svg xmlns="http://www.w3.org/2000/svg" width="100" height="100" viewBox="0 0 100 100"><path d="M91.967 7.961l.005-.047c0-1.51-1.223-2.731-2.73-2.733h-49.683v.011l-31.528 31.529h-.003v55.365h.003v.001c0 1.507 1.227 2.731 2.734 2.731h78.479c1.307-.002 2.397-.923 2.663-2.15h.06v-.536l.004-.044-.004-.044v-84.083zm-24.328 7.177h14.371v24.597l-18.113-18.114 3.742-6.483zm-28.069 24.315v-.001c1.504-.006 2.722-1.226 2.722-2.73v-21.584h19.588l-27.17 47.06-16.725-16.725v-6.02h21.585zm-21.585 45.409v-32.335l14.143 14.143-10.502 18.192h-3.641zm9.4 0l33.93-58.769 20.696 20.696v38.073h-54.626zM62.03 45.576c-6.645 0-12.026 5.387-12.026 12.027 0 2.659.873 5.109 2.334 7.1l7.759 13.439.157.271.016.027.004-.002c.394.544 1.028.899 1.764.899.664 0 1.243-.302 1.641-.767l.02.011.075-.129c.114-.153.214-.317.287-.497l7.608-13.178c1.494-2.004 2.39-4.482 2.39-7.175-.003-6.639-5.384-12.026-12.029-12.026zm-.119 18.124c-3.274 0-5.926-2.651-5.926-5.925s2.652-5.928 5.926-5.928 5.926 2.654 5.926 5.928-2.652 5.925-5.926 5.925z"/></svg>

<?xml version="1.0" encoding="utf-8"?>
<!-- Generator: Adobe Illustrator 17.0.0, SVG Export Plug-In . SVG Version: 6.00 Build 0)  -->
<!DOCTYPE svg PUBLIC "-//W3C//DTD SVG 1.1//EN" "http://www.w3.org/Graphics/SVG/1.1/DTD/svg11.dtd">
<svg version="1.1" id="Layer_1" xmlns="http://www.w3.org/2000/svg" xmlns:xlink="http://www.w3.org/1999/xlink" x="0px" y="0px"
	 width="100px" height="100px" viewBox="0 0 100 100" enable-background="new 0 0 100 100" xml:space="preserve">
<g>
	<path d="M91.967,7.961c0-0.016,0.005-0.031,0.005-0.047c0-1.51-1.223-2.731-2.73-2.733v0H89.24c0,0,0,0-0.001,0s0,0-0.001,0H39.57
		v0l0,0h-0.011v0.011L8.031,36.721H8.028l0,55.365h0.003c0,0,0,0,0,0.001c0,1.507,1.227,2.731,2.734,2.731v0h78.479v0
		c1.307-0.002,2.397-0.923,2.663-2.15h0.06v-0.536c0-0.015,0.004-0.029,0.004-0.044s-0.004-0.029-0.004-0.044L91.967,7.961z
		 M67.639,15.138h14.371l0,24.597L63.897,21.621L67.639,15.138z M39.57,39.453v-0.001c1.504-0.006,2.722-1.226,2.722-2.73
		c0,0,0-0.001,0-0.001h0V15.138H61.88l-27.17,47.06L17.985,45.473l0-6.02H39.57z M17.985,84.862l0-32.335L32.128,66.67
		L21.626,84.862H17.985z M27.385,84.862l33.93-58.769l20.696,20.696l0,38.073H27.385z"/>
	<path d="M62.03,45.576c-6.645,0-12.026,5.387-12.026,12.027c0,2.659,0.873,5.109,2.334,7.1l7.759,13.439
		c0.047,0.094,0.097,0.186,0.157,0.271l0.016,0.027l0.004-0.002c0.394,0.544,1.028,0.899,1.764,0.899
		c0.664,0,1.243-0.302,1.641-0.767l0.02,0.011l0.075-0.129c0.114-0.153,0.214-0.317,0.287-0.497l7.608-13.178
		c1.494-2.004,2.39-4.482,2.39-7.175C74.056,50.963,68.675,45.576,62.03,45.576z M61.911,63.7c-3.274,0-5.926-2.651-5.926-5.925
		s2.652-5.928,5.926-5.928c3.274,0,5.926,2.654,5.926,5.928S65.185,63.7,61.911,63.7z"/>
</g>
</svg>
